packages/icons/raw/shadcn/soup.svg

<svg width="24" height="24" viewBox="0 0 24 24" fill="none" xmlns="http://www.w3.org/2000/svg">
<path d="M12 21C14.3869 21 16.6761 20.0518 18.364 18.364C20.0518 16.6761 21 14.3869 21 12H3C3 14.3869 3.94821 16.6761 5.63604 18.364C7.32387 20.0518 9.61305 21 12 21Z" stroke="black" stroke-width="2" stroke-linecap="round" stroke-linejoin="round"/>
<path d="M7 21H17" stroke="black" stroke-width="2" stroke-linecap="round" stroke-linejoin="round"/>
<path d="M19.5 12L22 6" stroke="black" stroke-width="2" stroke-linecap="round" stroke-linejoin="round"/>
<path d="M16.25 3C16.52 3.1 17.05 3.53 17 4.36C16.94 5.19 16.07 5.56 16 6.38C15.95 7.16 16.34 7.62 16.73 8" stroke="black" stroke-width="2" stroke-linecap="round" stroke-linejoin="round"/>
<path d="M11.25 3C11.52 3.1 12.05 3.53 11.99 4.36C11.94 5.19 11.06 5.56 11.01 6.38C10.95 7.16 11.34 7.62 11.73 8" stroke="black" stroke-width="2" stroke-linecap="round" stroke-linejoin="round"/>
<path d="M6.24995 3C6.51995 3.1 7.04995 3.53 6.99995 4.36C6.93995 5.19 6.06995 5.56 5.99995 6.38C5.94995 7.16 6.33995 7.62 6.73995 8" stroke="black" stroke-width="2" stroke-linecap="round" stroke-linejoin="round"/>
</svg>

<!-- @license lucide-static v1.23.0 - ISC -->
<svg
  class="lucide lucide-soup"
  xmlns="http://www.w3.org/2000/svg"
  width="24"
  height="24"
  viewBox="0 0 24 24"
  fill="none"
  stroke="currentColor"
  stroke-width="2"
  stroke-linecap="round"
  stroke-linejoin="round"
>
  <path d="M12 21a9 9 0 0 0 9-9H3a9 9 0 0 0 9 9Z" />
  <path d="M7 21h10" />
  <path d="M19.5 12 22 6" />
  <path d="M16.25 3c.27.1.8.53.75 1.36-.06.83-.93 1.2-1 2.02-.05.78.34 1.24.73 1.62" />
  <path d="M11.25 3c.27.1.8.53.74 1.36-.05.83-.93 1.2-.98 2.02-.06.78.33 1.24.72 1.62" />
  <path d="M6.25 3c.27.1.8.53.75 1.36-.06.83-.93 1.2-1 2.02-.05.78.34 1.24.74 1.62" />
</svg>
